src/assets/icons/phone.svg

<svg width="20" height="20" viewBox="0 0 20 20" fill="none" xmlns="http://www.w3.org/2000/svg">
<path fill-rule="evenodd" clip-rule="evenodd" d="M1.25 3.75C1.25 2.36929 2.36929 1.25 3.75 1.25H4.89302C5.61 1.25 6.23498 1.73796 6.40887 2.43354L7.33037 6.11952C7.48284 6.72942 7.25495 7.37129 6.75202 7.74849L5.674 8.557C5.56206 8.64096 5.53772 8.7639 5.56917 8.84974C6.51542 11.4329 8.5671 13.4846 11.1503 14.4308C11.2361 14.4623 11.359 14.4379 11.443 14.326L12.2515 13.248C12.6287 12.7451 13.2706 12.5172 13.8805 12.6696L17.5665 13.5911C18.262 13.765 18.75 14.39 18.75 15.107V16.25C18.75 17.6307 17.6307 18.75 16.25 18.75H14.375C7.12626 18.75 1.25 12.8737 1.25 5.625V3.75Z" fill="#A685FA"/>
</svg>

<svg xmlns="http://www.w3.org/2000/svg" width="20" height="20" fill="none" xmlns:v="https://vecta.io/nano"><path fill-rule="evenodd" d="M1.25 3.75a2.5 2.5 0 0 1 2.5-2.5h1.143c.717 0 1.342.488 1.516 1.184L7.33 6.12c.152.61-.075 1.252-.578 1.629l-1.078.809c-.112.084-.136.207-.105.293.946 2.583 2.998 4.635 5.581 5.581.086.032.209.007.293-.105l.809-1.078c.377-.503 1.019-.731 1.629-.578l3.686.922c.695.174 1.183.799 1.183 1.516v1.143a2.5 2.5 0 0 1-2.5 2.5h-1.875A13.13 13.13 0 0 1 1.25 5.625V3.75z" fill="#a685fa"/></svg>
